X:1
T:Children Sing
T:Children Sing
T:William Howard Doane
T:Frances Janes (Fanny) Crosby, 1868
T:Public Domain Courtesy of the Cyber Hymnal™
T:Public Domain Courtesy of the Cyber Hymnal™
C:William Howard Doane
Z:Public Domain
Z:Courtesy of the Cyber Hymnal™
%%score ( 1 2 ) ( 3 4 )
L:1/8
Q:1/4=90
M:2/4
K:Ab
V:1 treble 
V:2 treble 
V:3 bass 
V:4 bass 
V:1
 [CE][Ec] [Ec]2 | [CE][Ec] [Ec]2 | [Fd][Ec] [DB][CA] | [B,G][CA] [DB]2 | [DE][DB] [DB]2 | %5
w: 1.~Child- ren sing,|glad- ly sing,|Hal- le- lu- jahs|to our king;|Lord of all,|
w: 2.~Jour- ney on|hand in hand,|Sing- ing to the|prom- ised land,|There is rest,|
w: 3.~Child- ren sing,|when the light|Wakes the ro- sy|morn- ing bright,|When the birds’|
w: 4.~Child- ren sing!|who can tell|If the song you|love so well,|May not reach|
 [DE][DB] [DB]2 | [Ec][DB] [CA][B,G] | [CA][DB] !fermata![Ec]2 | [CE][Ec] [Ec]2 | [CE][Ec] [Ec]2 | %10
w: great and small,|At His feet with|rap- ture fall;|Child- ren sing,|He is near,|
w: there is rest,|In the king- dom|of the blest;|Child- ren sing,|glad- ly sing,|
w: tune- ful lay,|Hail with joy the|op’n- ing day,|Praise the Lord,|He has made|
w: one whose heart|Longs to choose the|bet- ter part?|Steal- ing soft,|like the sigh|
 [Fd][Ec] [DB][CA] | [B,G][CA] [DB]2 | [DE][DB] [DB]2 | [DE][DB] [DB]2 | [Ec][DB] [CA][B,G] | %15
w: Bend- ing still His|gra- cious ear;|Trust in Him,|O re- joice!|Praise the Lord with|
w: Till the heav’n- ly|arch- es ring,|Till you hear|saints a- bove,|Prais- ing God, for|
w: Verd- ant lawn and|for- est shade.|Child- ren sing,|glad- ly sing,|Hal- le- lu- jahs|
w: Of a ze- phyr|pass- ing by.|Child- ren sing,|ev- er sing,|Loud- est praise to|
 [Ec][DB] !fermata![CA]2 ||"^Refrain" [EA] | [Fd]2 [Fd][Fd] | [Ec]3 z | [GB]2 [Ge][Ge] | [Ac]3 z | %21
w: heart and voice.||||||
w: He is love.|Then|sing, glad- ly|sing.|Sing, glad- ly|sing.|
w: to our king.||||||
w: God our king.||||||
 [GB][GB] [GB][GB] | [FA][FA] [FA]2 | [=EG][EG] [EG][EG] | F[DF] [DF]2 | E2 [EA]2 | (Bc) (df) | %27
w: ||||||
w: Till the heav’n- ly|arch- es ring,|Till you hear the|saints a- bove,|Prais- ing|God, * for *|
w: ||||||
w: ||||||
 !fermata![Ae]2 !fermata!G2 | [CA]4 |] %29
w: ||
w: He is|love.|
w: ||
w: ||
V:2
 x4 | x4 | x4 | x4 | x4 | x4 | x4 | x4 | x4 | x4 | x4 | x4 | x4 | x4 | x4 | x4 || x | x4 | x4 | %19
 x4 | x4 | x4 | x4 | x4 | F x3 | E2 x2 | F2 F2 | x2 (ED) | x4 |] %29
V:3
 [A,,A,][A,,A,] [A,,A,]2 | [A,,A,][A,,A,] [A,,A,]2 | [A,,A,][A,,A,] [A,,E][A,,E] | %3
 [E,E][E,E] [E,E]2 | [E,B,][E,G,] [E,G,]2 | [E,G,][E,G,] [E,G,]2 | [E,A,]E, E,E, | %7
 A,A, !fermata!A,2 | [A,,A,][A,,A,] [A,,A,]2 | [A,,A,][A,,A,] [A,,A,]2 | %10
 [A,,A,][A,,A,] [A,,E][A,,E] | [E,E][E,E] [E,E]2 | [E,B,][E,G,] [E,G,]2 | [E,G,][E,G,] [E,G,]2 | %14
 [E,A,]E, E,E, | [E,A,][E,G,] !fermata![A,,A,]2 || [A,,A,] | A,2 [F,A,][G,A,] | A,3 z | %19
 [E,E]2 [E,B,][E,B,] | [A,,E]3 z | [E,D][E,D] [E,D][E,D] | [F,C][F,C] [F,C]2 | %23
 [C,C][C,C] [C,C][C,B,] | [D,A,][D,A,] [D,A,]2 | [C,A,]2 [A,,C]2 | [D,A,]2 (B,D) | %27
 !fermata![E,C]2 !fermata![E,B,]2 | [A,,A,]4 |] %29
V:4
 x4 | x4 | x4 | x4 | x4 | x4 | x E, E,E, | A,A, A,2 | x4 | x4 | x4 | x4 | x4 | x4 | x E, E,E, | %15
 x4 || x | (D,E,) x2 | A,3 x | x4 | x4 | x4 | x4 | x4 | x4 | x4 | x2 D,2 | x4 | x4 |] %29

